X: 6
T: The Irish Washerwoman
R: jig
M: 6/8
L: 1/8
K: Gmaj
|:BGG DGG|BGB dcB|cAA EAA|cAc edc|BGG DGG|BGB dcB|cBc Adc|BGG G3:||:gdd Bdd|gdg bag|fdd Add|fdf agf|egg dgg|cgg BgB|cBc Adc|BGG G3:|


Tune 92	Setting 12632

